source/img/vk-logo.svg

<svg width="26" height="16" viewBox="0 0 26 16" fill="none" xmlns="http://www.w3.org/2000/svg">
<path fill-rule="evenodd" clip-rule="evenodd" d="M25.0593 1.34867C25.1479 1.37635 25.229 1.42341 25.2971 1.48645C25.3652 1.54949 25.4189 1.62691 25.4534 1.71309C25.4878 1.79928 25.5027 1.89206 25.4968 1.9847C25.4909 2.07734 25.4642 2.16751 25.4192 2.24866C25.2992 2.48166 25.1691 2.70866 25.0491 2.93566C25.0476 3.01518 25.0268 3.09315 24.9885 3.16284C24.9502 3.23253 24.8957 3.29185 24.8293 3.33567C23.725 5.34283 22.4432 7.24708 20.9992 9.02565C20.9944 9.02718 20.9901 9.02991 20.9866 9.03359C20.9831 9.03726 20.9805 9.04176 20.9792 9.04666C22.6492 10.2297 26.6392 13.2467 24.6892 14.9467C23.6692 15.8397 20.7091 15.6897 19.5691 15.1837C18.9084 14.8445 18.2934 14.4227 17.739 13.9287C16.759 13.1387 16.4891 13.1847 15.6091 14.0287C14.4791 15.1137 13.8494 15.8007 12.1794 15.6037C10.1849 15.2559 8.32981 14.3499 6.82933 12.9907C3.4438 10.0424 1.05985 6.11326 0.00901499 1.74866C-0.00445804 1.68078 -0.00269686 1.61079 0.0134095 1.54349C0.0295159 1.47619 0.0600229 1.41316 0.102765 1.35874C0.145507 1.30431 0.199402 1.25978 0.260968 1.22818C0.322534 1.19658 0.390073 1.17866 0.45921 1.17566C0.47921 1.17566 0.479249 1.16566 0.499249 1.16066C2.07974 0.876886 3.69259 0.819304 5.28929 0.989657C5.41579 1.00538 5.53429 1.05947 5.62913 1.14466C5.67589 1.16345 5.71727 1.19371 5.74925 1.23265C6.97925 2.71465 7.51905 4.67166 8.79905 6.11266C9.41905 6.81266 9.61942 6.69666 9.67943 5.73566C9.70775 5.32324 9.71086 4.90948 9.68919 4.49666C9.62919 3.41766 9.24909 2.47266 9.08909 1.42366C9.05895 1.28631 9.08441 1.14261 9.15941 1.02365C9.17637 0.905017 9.23091 0.795087 9.31566 0.710345C9.4004 0.625603 9.5105 0.570617 9.62913 0.553653C11.1537 0.454878 12.6825 0.434188 14.2092 0.491656C14.3038 0.462418 14.4052 0.464105 14.4988 0.496478C14.5923 0.528851 14.673 0.59023 14.7292 0.671664C14.7864 0.688307 14.8381 0.720165 14.8786 0.763842C14.9192 0.80752 14.9469 0.861378 14.9592 0.919665C15.1391 1.86199 15.1998 2.82322 15.1394 3.78066C15.1294 4.24066 15.1191 4.70466 15.1091 5.16466C15.0991 5.42766 15.0993 5.69165 15.0993 5.95465C14.9993 6.44065 15.1894 6.62567 15.6594 6.51267C16.4494 6.59967 16.6591 5.92866 17.0491 5.31266C17.2791 4.94666 17.4992 4.56966 17.7092 4.18766C18.2092 3.28766 18.569 2.34466 19.029 1.42966C19.0619 1.35651 19.1135 1.29326 19.1784 1.24623C19.2434 1.1992 19.3194 1.17003 19.3992 1.16165C19.4453 1.13562 19.4963 1.11961 19.5491 1.11466C21.3886 0.977428 23.2381 1.05597 25.0593 1.34867Z" fill="#5476A4"/>
</svg>

<svg width="26" height="16" fill="none" xmlns="http://www.w3.org/2000/svg"><path fill-rule="evenodd" clip-rule="evenodd" d="M25.06 1.349a.624.624 0 01.36.9c-.12.233-.25.46-.37.687a.49.49 0 01-.22.4A38.377 38.377 0 0121 9.026a.03.03 0 00-.02.021c1.67 1.183 5.66 4.2 3.71 5.9-1.02.893-3.98.743-5.12.237a8.776 8.776 0 01-1.831-1.255c-.98-.79-1.25-.744-2.13.1-1.13 1.085-1.76 1.772-3.43 1.575a10.71 10.71 0 01-5.35-2.613A21.618 21.618 0 01.01 1.749a.48.48 0 01.45-.573c.02 0 .02-.01.04-.015A16.937 16.937 0 015.29.99a.62.62 0 01.34.155.3.3 0 01.12.088c1.23 1.482 1.77 3.439 3.05 4.88.62.7.82.584.88-.377.029-.413.032-.827.01-1.24-.06-1.078-.44-2.023-.6-3.072a.535.535 0 01.07-.4.553.553 0 01.47-.47 44.786 44.786 0 014.58-.062.465.465 0 01.52.18.33.33 0 01.23.248c.18.942.24 1.903.18 2.86l-.03 1.385c-.01.263-.01.527-.01.79-.1.486.09.67.56.558.79.087 1-.584 1.39-1.2.23-.366.45-.743.66-1.125.5-.9.86-1.843 1.32-2.758a.46.46 0 01.37-.268.376.376 0 01.15-.047 23.642 23.642 0 015.51.234z" fill="#5476A4"/></svg>
